X: 1545
T: Hilarity
B: australian traditional tunes wiki
M:4/4
L:1/8
R: One Step
Q: 1/4=100
K:Gmaj
V:1 
gg|"G"g2ff"D7"f2ef|e2"G" B2B2Bc|"D7"d2e2f2g2|"C"e6ff|
"D7"f2efe2de|d2A2A3B|c2d2e2f2|"G"d6gg|
g2ff"D7"f2ef|e2"G"B2B3c|"D7"d2e2f2g2|"D7"a6aa|
a2eee2ef|"G"g2 ddd2de|"D7"d2c2B2A2|"G"G6"fine"zd||
"D"f6 A2|e6A2|"G"d3c d2B2|"A"c6c2|
"G"g6B2|"D"f6A2|"A7"e2a2"D"f2e2|e2d2A2A2|
"D"f3e f2d2|"A7"e3 de2c2|"D"d2c2"A7"e2d2|"G"c2B2B2gf|
g2B2 B2fe |"D" f2A2A2zA|"A7"d2c2f2e2|"D"d4"d.c."z2:|
% abcbook-tune_id 6342d53a5794b8edcd5ec2c0


% abcbook-boost 0
% abcbook-tablature 
% abcbook-transpose 
% abcbook-lastupdated 1665324370344
% abcbook-soundfonts 
% abcbook-repeats 1
% NFF Book 2020

